dist/svg/chat-duo-tone.svg

<svg xmlns="http://www.w3.org/2000/svg" viewBox="0 0 24 24"><path d="M11.32 2.28c-1.88.127-3.677.804-5.236 1.972-.474.355-1.329 1.199-1.735 1.712a10 10 0 0 0-2.033 4.896c-.065.515-.065 1.765 0 2.28.118.937.438 2.088.801 2.874q.163.354.163.521c0 .091-.072.445-.16.786l-.321 1.239c-.206.798-.265 1.275-.203 1.65.119.72.514 1.096 1.253 1.196.395.053.784.003 1.576-.202l1.233-.319c.351-.091.713-.165.806-.165q.168 0 .522.163c.496.229 1.426.533 1.994.651a9.7 9.7 0 0 0 6.32-.792 9.72 9.72 0 0 0 4.442-4.442c1.349-2.756 1.349-5.844 0-8.6a9.8 9.8 0 0 0-3.566-3.961c-.824-.522-2.118-1.053-3.056-1.253a11 11 0 0 0-2.8-.206m1.526 1.522a8.4 8.4 0 0 1 4.291 1.749c.363.287 1.025.949 1.312 1.312a8.4 8.4 0 0 1 1.749 4.291c.25 2.466-.624 4.932-2.355 6.646-1.192 1.18-2.502 1.909-4.023 2.239-1.807.391-3.537.212-5.254-.547-.272-.12-.604-.235-.737-.257-.333-.053-.85.014-1.601.208l-1.141.296c-.294.076-.643.15-.776.165l-.243.028.027-.236a9 9 0 0 1 .188-.856l.298-1.146c.285-1.098.276-1.477-.053-2.225-.582-1.322-.802-2.406-.757-3.728.043-1.249.286-2.236.83-3.361A8.2 8.2 0 0 1 9.4 4.185a8.2 8.2 0 0 1 3.446-.383M7.7 11.316a.745.745 0 0 0 .029 1.382.65.65 0 0 0 .542 0 .748.748 0 0 0 0-1.396.67.67 0 0 0-.571.014m4 0a.745.745 0 0 0 .029 1.382.65.65 0 0 0 .542 0 .748.748 0 0 0 0-1.396.67.67 0 0 0-.571.014m4 0a.745.745 0 0 0 .029 1.382.65.65 0 0 0 .542 0 .748.748 0 0 0 0-1.396.67.67 0 0 0-.571.014"/></svg>

<svg fill="none" xmlns="http://www.w3.org/2000/svg" viewBox="0 0 24 24"><path d="M11.320 2.280 C 9.440 2.407,7.643 3.084,6.084 4.252 C 5.610 4.607,4.755 5.451,4.349 5.964 C 3.260 7.343,2.540 9.077,2.316 10.860 C 2.251 11.375,2.251 12.625,2.316 13.140 C 2.434 14.077,2.754 15.228,3.117 16.014 C 3.225 16.249,3.280 16.424,3.280 16.535 C 3.280 16.626,3.208 16.980,3.120 17.321 C 3.031 17.661,2.887 18.219,2.799 18.560 C 2.593 19.358,2.534 19.835,2.596 20.210 C 2.715 20.930,3.110 21.306,3.849 21.406 C 4.244 21.459,4.633 21.409,5.425 21.204 C 5.752 21.120,6.307 20.976,6.658 20.885 C 7.009 20.794,7.371 20.720,7.464 20.720 C 7.576 20.720,7.750 20.774,7.986 20.883 C 8.482 21.112,9.412 21.416,9.980 21.534 C 12.146 21.984,14.339 21.709,16.300 20.742 C 18.243 19.782,19.800 18.226,20.742 16.300 C 22.091 13.544,22.091 10.456,20.742 7.700 C 19.952 6.085,18.721 4.718,17.176 3.739 C 16.352 3.217,15.058 2.686,14.120 2.486 C 13.247 2.300,12.184 2.222,11.320 2.280 M12.846 3.802 C 14.378 3.958,15.907 4.581,17.137 5.551 C 17.500 5.838,18.162 6.500,18.449 6.863 C 19.419 8.093,20.042 9.622,20.198 11.154 C 20.448 13.620,19.574 16.086,17.843 17.800 C 16.651 18.980,15.341 19.709,13.820 20.039 C 12.013 20.430,10.283 20.251,8.566 19.492 C 8.294 19.372,7.962 19.257,7.829 19.235 C 7.496 19.182,6.979 19.249,6.228 19.443 C 5.893 19.530,5.380 19.663,5.087 19.739 C 4.793 19.815,4.444 19.889,4.311 19.904 L 4.068 19.932 4.095 19.696 C 4.110 19.566,4.194 19.181,4.283 18.840 C 4.372 18.499,4.505 17.983,4.581 17.694 C 4.866 16.596,4.857 16.217,4.528 15.469 C 3.946 14.147,3.726 13.063,3.771 11.741 C 3.814 10.492,4.057 9.505,4.601 8.380 C 5.557 6.401,7.293 4.883,9.400 4.185 C 10.526 3.811,11.678 3.683,12.846 3.802 M7.700 11.316 C 7.084 11.600,7.101 12.436,7.729 12.698 C 7.917 12.777,8.083 12.777,8.271 12.698 C 8.911 12.431,8.911 11.569,8.271 11.302 C 8.076 11.221,7.897 11.225,7.700 11.316 M11.700 11.316 C 11.084 11.600,11.101 12.436,11.729 12.698 C 11.917 12.777,12.083 12.777,12.271 12.698 C 12.911 12.431,12.911 11.569,12.271 11.302 C 12.076 11.221,11.897 11.225,11.700 11.316 M15.700 11.316 C 15.084 11.600,15.101 12.436,15.729 12.698 C 15.917 12.777,16.083 12.777,16.271 12.698 C 16.911 12.431,16.911 11.569,16.271 11.302 C 16.076 11.221,15.897 11.225,15.700 11.316 " stroke="none" fill-rule="evenodd"/></svg>
